src/icons/debug-breakpoint-conditional-unverified.svg

<svg width="16" height="16" viewBox="0 0 16 16" fill="none" xmlns="http://www.w3.org/2000/svg">
<path fill-rule="evenodd" clip-rule="evenodd" d="M5.77772 4.67407C6.43551 4.23455 7.20888 4 8.00001 4C9.06087 4 10.0783 4.42149 10.8284 5.17163C11.5786 5.92178 12 6.93913 12 8C12 8.79113 11.7654 9.56449 11.3259 10.2223C10.8863 10.8801 10.2617 11.3928 9.53077 11.6956C8.79986 11.9983 7.9956 12.0774 7.21967 11.9231C6.44375 11.7688 5.73099 11.3878 5.17158 10.8284C4.61217 10.269 4.23119 9.55632 4.07685 8.7804C3.92251 8.00447 4.00176 7.20014 4.30451 6.46924C4.60726 5.73833 5.11992 5.1136 5.77772 4.67407ZM6.47218 10.2865C6.92441 10.5887 7.45611 10.75 8.00001 10.75C8.72935 10.75 9.4288 10.4603 9.94453 9.94458C10.4603 9.42885 10.75 8.72935 10.75 8C10.75 7.4561 10.5887 6.9244 10.2866 6.47217C9.98439 6.01993 9.55487 5.66749 9.05238 5.45935C8.54988 5.25121 7.99696 5.19675 7.46351 5.30286C6.93006 5.40897 6.44008 5.67083 6.05549 6.05542C5.67089 6.44001 5.40897 6.93005 5.30286 7.4635C5.19675 7.99695 5.25122 8.54987 5.45936 9.05237C5.6675 9.55486 6.01994 9.98432 6.47218 10.2865ZM9.5 6.5H6.5V7.5H9.5V6.5ZM9.5 8.5H6.5V9.5H9.5V8.5Z" fill="#848484"/>
</svg>

<svg width="16" height="16" xmlns="http://www.w3.org/2000/svg"><path fill-rule="evenodd" clip-rule="evenodd" d="M5.778 4.674a4 4 0 1 1 4.444 6.652 4 4 0 0 1-4.444-6.652zm.694 5.612a2.75 2.75 0 1 0 3.056-4.572 2.75 2.75 0 0 0-3.056 4.572zM9.5 6.5h-3v1h3v-1zm0 2h-3v1h3v-1z"/></svg>
